icons/livestream-video-layer-24.svg

<?xml version="1.0" encoding="UTF-8"?><svg id="icons" xmlns="http://www.w3.org/2000/svg" viewBox="0 0 24 24"><defs><style>.cls-1{fill:none;}.cls-1,.cls-2{stroke-width:0px;}</style></defs><rect class="cls-1" width="24" height="24"/><path class="cls-2" d="M11,15l5-3.5-5-3.5v7ZM12,9.9209l2.25635,1.5791-2.25635,1.5791v-3.1582ZM15.09668,20.42249c-2.8894.4599-4.74438,1.3775-8.67285,1.3775-3.38989,0-5.42383-1.01697-5.42383-1.01697L4.05078,3.07794s2.03394.72205,4.51978.72205c3.84814,0,3.89209-1.59998,7.74023-1.59998,2.48584,0,4.51978.87793,4.51978.87793l2.32837,13.81787c-.32715-.45837-.73755-.85077-1.20947-1.15936l-2.00879-11.92145c-.70264-.23492-2.07935-.61499-3.62988-.61499-1.72656,0-2.5437.33588-3.48999.72485-.9978.41022-2.12866.87512-4.25024.87512-1.49585,0-2.83252-.24231-3.72314-.45691l-2.72363,15.80664c.80688.26935,2.30127.65027,4.30005.65027,2.50244,0,4.09595-.38336,5.78296-.78918.87842-.2113,1.77393-.42566,2.80078-.58588-.00049.02557-.00757.04938-.00757.07507,0,.31628.03442.62445.09668.92249ZM12.50562,6.00562c-3.02954,0-5.49438,2.46472-5.49438,5.49438s2.46484,5.49438,5.49438,5.49438,5.49438-2.46478,5.49438-5.49438-2.46484-5.49438-5.49438-5.49438ZM12.5,16c-2.48096,0-4.5-2.01898-4.5-4.5s2.01904-4.5,4.5-4.5,4.5,2.01898,4.5,4.5-2.01904,4.5-4.5,4.5ZM22.97,19.5c0,1.93024-1.56476,3.495-3.495,3.495s-3.495-1.56476-3.495-3.495,1.56476-3.495,3.495-3.495,3.495,1.56476,3.495,3.495Z"/></svg>

<svg xmlns="http://www.w3.org/2000/svg" viewBox="0 0 24 24"><path stroke-width="0" fill="none" d="M0 0h24v24H0z"/><path d="M11 15l5-3.5L11 8v7zm1-5.08l2.256 1.58L12 13.08V9.92zm3.097 10.502c-2.89.46-4.745 1.378-8.673 1.378C3.034 21.8 1 20.783 1 20.783L4.05 3.078s2.035.722 4.52.722c3.849 0 3.893-1.6 7.74-1.6 2.487 0 4.52.878 4.52.878l2.329 13.818a4.53 4.53 0 0 0-1.21-1.16L19.941 3.815c-.703-.235-2.08-.615-3.63-.615-1.727 0-2.544.336-3.49.725-.998.41-2.129.875-4.25.875-1.496 0-2.833-.242-3.724-.457L2.124 20.15c.807.27 2.301.65 4.3.65 2.502 0 4.096-.383 5.783-.79.878-.21 1.774-.425 2.8-.585 0 .025-.007.05-.007.075 0 .316.034.624.097.922zM12.506 6.006c-3.03 0-5.495 2.464-5.495 5.494s2.465 5.494 5.495 5.494S18 14.53 18 11.5s-2.465-5.494-5.494-5.494zM12.5 16C10.019 16 8 13.981 8 11.5S10.019 7 12.5 7 17 9.019 17 11.5 14.981 16 12.5 16zm10.47 3.5a3.495 3.495 0 1 1-6.99 0 3.495 3.495 0 0 1 6.99 0z" stroke-width="0"/></svg>
